X:40
T:Plumb Pudding. JJo8.040
B:J.Johnson Choice Collection Vol 8 1758
Z:vmp.Simon Wilson 2013 www.village-music-project.org.uk
M:2/4
L:1/8
Q:1/2=90
K:Bb
|:B2((3dcB)|gedc|B2((3dcB)|AFAF|B2((3dcB)|gedc|((3def) ((3dcB)|c2B2:|
|:B2((3dcB)|bBbB|B2((3dcB)|AFAF|B2((3dcB)|gedc|((3def) ((3dcB)|c2B2:|

